front/public/static/landing/logos/gray/sharebite.svg

<svg fill="none" height="240" viewBox="0 0 600 240" width="600" xmlns="http://www.w3.org/2000/svg" xmlns:xlink="http://www.w3.org/1999/xlink"><mask id="a" height="76" maskUnits="userSpaceOnUse" width="456" x="72" y="82"><path d="m527.679 82.5007h-455.3587v75.0003h455.3587z" fill="#fff"/></mask><mask id="b" height="76" maskUnits="userSpaceOnUse" width="456" x="72" y="82"><path d="m527.677 82.5007h-455.3567v75.0003h455.3567z" fill="#fff"/></mask><g mask="url(#a)"><g fill="#364153" mask="url(#b)"><path d="m187.469 131.526h7.242c.425 4.259 3.886 6.916 8.987 6.916 5.102 0 8.245-2.494 8.245-6.04 0-9.483-23.73-2.968-23.73-17.452 0-7.42 6.429-11.827 14.59-11.827 8.449 0 14.742 4.192 15.638 11.746h-7.326c-.569-3.465-3.75-6.04-8.221-6.04-3.887 0-7.5 1.655-7.5 5.394 0 8.778 23.958 2.018 23.958 17.474 0 7.42-6.43 12.614-15.654 12.614-9.223 0-15.531-4.667-16.229-12.785z"/><path d="m227.109 87.0187h7.408v21.8963c1.511-1.793 3.41-3.236 5.56-4.224 2.151-.987 4.499-1.497 6.875-1.49 9.489 0 15.987 6.604 15.987 17.622v22.616h-7.592v-22.452c0-6.292-3.696-10.952-10.05-10.952s-10.719 4.355-10.719 11.345v22.059h-7.5z"/><path d="m399.031 138.208v5.142h-7.593v-56.3313h7.593v22.2593c1.811-1.976 4.039-3.55 6.525-4.618 2.486-1.067 5.179-1.602 7.898-1.57 11.538 0 20.269 8.778 20.269 20.672s-8.731 20.516-20.269 20.516c-2.708.029-5.393-.498-7.875-1.549-2.487-1.051-4.718-2.601-6.548-4.551zm13.661-.972c2.757.041 5.464-.72 7.774-2.188 2.31-1.467 4.121-3.574 5.205-6.051 1.08-2.478 1.38-5.214.867-7.86-.514-2.646-1.823-5.082-3.762-6.998-1.939-1.915-4.414-3.224-7.117-3.759-2.7-.534-5.502-.27-8.048.758-2.55 1.028-4.725 2.774-6.251 5.016-1.53 2.242-2.34 4.877-2.329 7.571-.082 1.782.21 3.562.866 5.228.657 1.665 1.658 3.18 2.941 4.449 1.282 1.269 2.823 2.265 4.518 2.925s3.514.969 5.336.909z"/><path d="m449.656 104.079v39.325h-7.653v-39.325zm1.167-10.7959c0 .7316-.165 1.4535-.484 2.115-.326.6585-.795 1.2405-1.373 1.7063-.581.4627-1.256.7946-1.98.972-.723.1773-1.481.1961-2.212.054-.735-.1418-1.425-.4403-2.025-.8742-.6-.4342-1.095-.9926-1.451-1.6357-.357-.6431-.563-1.356-.6-2.0865-.038-.7305.093-1.4603.378-2.1353.45-1.0586 1.26-1.9323 2.295-2.4735 1.032-.5407 2.228-.7155 3.379-.4946 1.148.2246 2.179.8306 2.921 1.7149.747.8846 1.152 1.9931 1.152 3.1376z"/><path d="m305.866 137.239v-18.267c0-9.646-6.428-15.849-16.882-15.849-9.641 0-16.975 5.795-17.316 13.838h7.591c.334-4.452 4.488-7.717 9.55-7.717 5.929 0 9.482 3.451 9.482 9.09v1.283h-8.16c-12.193 0-18.858 5.231-18.858 12.948 0 7.079 5.702 11.746 14.508 11.746 2.45-.006 4.864-.565 7.055-1.635s4.1-2.62 5.577-4.531c.084.645.255 1.275.507 1.877.373.883.92 1.685 1.611 2.359 1.055 1.017 2.392 1.71 3.848 1.992 1.454.282 2.961.142 4.334-.404.911-.363 1.739-.897 2.437-1.573.718-.67 1.291-1.475 1.686-2.367.373-.884.566-1.832.568-2.79zm-10.839-2.285c-1.132 1.128-2.482 2.026-3.971 2.642-1.49.614-3.089.929-4.706.927v.082c-4.95 0-7.667-2.575-7.667-6.203 0-4.734 4.121-7.242 11.698-7.242h8.069v1.224c.045 1.579-.235 3.151-.819 4.623-.595 1.47-1.479 2.811-2.604 3.947z"/><path d="m342.647 124.031c-.059-4.087 1.126-8.098 3.405-11.525 2.278-3.427 5.548-6.115 9.393-7.722 2.548-1.073 5.287-1.641 8.062-1.669 2.565-.049 5.115.409 7.493 1.346 2.38.937 4.541 2.334 6.356 4.107 1.815 1.772 3.244 3.885 4.204 6.21.96 2.326 1.429 4.817 1.38 7.324-.015 1.102-.097 2.202-.251 3.295h-32.657c.131 3.461 1.649 6.733 4.224 9.112 2.577 2.379 6.005 3.674 9.548 3.605 5.359 0 10.043-2.82 11.212-6.989h7.5c-1.89 7.716-9.307 13.192-19.191 13.192-2.732.047-5.444-.447-7.976-1.451-2.531-1.005-4.829-2.5-6.752-4.395-1.925-1.896-3.438-4.152-4.449-6.633-1.009-2.482-1.494-5.137-1.426-7.807zm32.553-4.838c-.412-5.461-5.279-9.727-11.693-9.727-2.952-.01-5.821.941-8.157 2.702-2.337 1.762-4.007 4.233-4.748 7.025z"/><path d="m473.01 110.525 11.306.037v-6.441h-11.389v-10.5435h-7.507v10.5435h-7.826v6.448h7.826v26.711c0 .959.214 1.905.622 2.775.424.897 1.028 1.7 1.778 2.36 1.414 1.2 3.176 1.933 5.04 2.095 1.864.163 3.735-.253 5.344-1.19 1.324-.766 2.381-1.903 3.037-3.265.409-.873.626-1.821.638-2.782h-8.869c-.135-5.009 0-26.748 0-26.748z"/><path d="m487.433 124.03c-.042-2.712.465-5.406 1.488-7.927 1.028-2.521 2.55-4.82 4.485-6.764 1.954-1.941 4.275-3.491 6.833-4.564 2.55-1.068 5.291-1.633 8.062-1.661 2.558-.04 5.1.425 7.47 1.366 2.374.941 4.527 2.339 6.334 4.111 1.808 1.772 3.233 3.881 4.189 6.202.952 2.321 1.421 4.807 1.372 7.308-.022 1.102-.101 2.201-.236 3.295h-32.685c.131 3.459 1.643 6.731 4.219 9.109 2.572 2.379 6 3.675 9.544 3.608 5.358 0 10.132-2.819 11.197-6.989h7.504c-1.886 7.716-9.304 13.192-19.189 13.192-2.73.048-5.445-.445-7.972-1.45-2.535-1.004-4.83-2.499-6.754-4.395s-3.435-4.152-4.444-6.634c-1.005-2.482-1.489-5.138-1.417-7.807zm32.535-4.838c-.424-5.46-5.265-9.727-11.697-9.727-2.947-.002-5.816.952-8.148 2.712-2.337 1.76-4.009 4.227-4.755 7.015z"/><path d="m326.742 119.735v-.163c.007-.647.084-1.291.229-1.922v-.089c.046-.219.107-.434.182-.645v-.09c0-.081.061-.17.098-.259.668-1.863 1.909-3.478 3.554-4.623 1.644-1.145 3.612-1.764 5.632-1.773h4.661v-6.5h-4.327c-4.411 0-8.829 2.76-10.188 6.285v-6.285h-7.591v39.704h7.659v-21.659c0-.66 0-1.321.054-1.959z"/><path d="m115.273 116.738.342.067c4.653.75 9.42-.336 13.253-3.021 3.834-2.685 6.418-6.748 7.186-11.296.768-4.5477-.343-9.2075-3.09-12.9541s-6.904-6.273-11.557-7.0238h-.341z"/><path d="m106.728 126.895-.114-.312c-1.684-4.28-5.032-7.737-9.3125-9.615-4.281-1.878-9.1478-2.026-13.5398-.412-4.392 1.615-7.9526 4.862-9.906 9.032s-2.1405 8.926-.5212 13.231l.1215.311z"/><path d="m120.021 129.045-.228.252c-2.93 3.568-4.302 8.122-3.819 12.673.484 4.551 2.784 8.732 6.402 11.636 3.618 2.903 8.262 4.294 12.923 3.872 4.662-.422 8.964-2.625 11.974-6.129l.213-.26z"/><path d="m100.543 112.194c2.24.09 4.457-.47 6.37-1.611s3.437-2.811 4.378-4.799c.942-1.988 1.259-4.205.911-6.3688-.347-2.1642-1.344-4.1787-2.864-5.7889-1.52-1.6103-3.494-2.7435-5.673-3.2561-2.179-.513-4.4644-.3825-6.5678.375-2.103.7571-3.9285 2.1075-5.2462 3.8797-1.3174 1.7719-2.0674 3.8865-2.1551 6.0751-.1152 2.929.9618 5.783 2.9951 7.937 2.0329 2.154 4.8566 3.433 7.852 3.557z"/><path d="m99.6476 157.487c2.2354.089 4.4484-.472 6.3584-1.612 1.91-1.139 3.431-2.807 4.372-4.792.941-1.984 1.258-4.197.913-6.358-.346-2.161-1.339-4.173-2.854-5.783-1.515-1.609-3.485-2.744-5.659-3.26-2.175-.516-4.4572-.39-6.5587.362-2.1015.751-3.9277 2.094-5.2485 3.86-1.3207 1.766-2.076 3.875-2.1712 6.06-.0642 1.453.1661 2.905.6768 4.271.5108 1.367 1.2927 2.621 2.3003 3.691 1.0076 1.071 2.2219 1.936 3.5726 2.547 1.3504.612 2.811.956 4.2983 1.014z"/><path d="m140.228 135.575c2.236.088 4.449-.474 6.358-1.616 1.91-1.141 3.43-2.81 4.369-4.795.939-1.986 1.255-4.199.907-6.36-.347-2.162-1.342-4.173-2.859-5.782-1.518-1.608-3.488-2.741-5.664-3.254-2.175-.514-4.458-.386-6.559.368s-3.926 2.1-5.244 3.868c-1.319 1.767-2.072 3.877-2.164 6.063-.119 2.932.957 5.791 2.992 7.949 2.036 2.158 4.864 3.438 7.864 3.559z"/></g></g></svg>

<svg width="600" height="240" viewBox="0 0 600 240" fill="none" xmlns="http://www.w3.org/2000/svg">
<mask id="mask0_1904_3726" style="mask-type:luminance" maskUnits="userSpaceOnUse" x="72" y="82" width="456" height="76">
<path d="M527.679 82.5007H72.3203V157.501H527.679V82.5007Z" fill="white"/>
</mask>
<g mask="url(#mask0_1904_3726)">
<mask id="mask1_1904_3726" style="mask-type:luminance" maskUnits="userSpaceOnUse" x="72" y="82" width="456" height="76">
<path d="M527.677 82.5007H72.3203V157.501H527.677V82.5007Z" fill="white"/>
</mask>
<g mask="url(#mask1_1904_3726)">
<path d="M187.469 131.526H194.711C195.136 135.785 198.597 138.442 203.698 138.442C208.8 138.442 211.943 135.948 211.943 132.402C211.943 122.919 188.213 129.434 188.213 114.95C188.213 107.53 194.642 103.123 202.803 103.123C211.252 103.123 217.545 107.315 218.441 114.869H211.115C210.546 111.404 207.365 108.829 202.894 108.829C199.007 108.829 195.394 110.484 195.394 114.223C195.394 123.001 219.352 116.241 219.352 131.697C219.352 139.117 212.922 144.311 203.698 144.311C194.475 144.311 188.167 139.644 187.469 131.526Z" fill="#364153"/>
<path d="M227.109 87.0187H234.517V108.915C236.028 107.122 237.927 105.679 240.077 104.691C242.228 103.704 244.576 103.194 246.952 103.201C256.441 103.201 262.939 109.805 262.939 120.823V143.439H255.347V120.987C255.347 114.695 251.651 110.035 245.297 110.035C238.943 110.035 234.578 114.39 234.578 121.38V143.439H227.078L227.109 87.0187Z" fill="#364153"/>
<path d="M399.031 138.208V143.35H391.438V87.0187H399.031V109.278C400.842 107.302 403.07 105.728 405.556 104.66C408.042 103.593 410.735 103.058 413.454 103.09C424.992 103.09 433.723 111.868 433.723 123.762C433.723 135.656 424.992 144.278 413.454 144.278C410.746 144.307 408.061 143.78 405.579 142.729C403.092 141.678 400.861 140.128 399.031 138.178V138.208ZM412.692 137.236C415.449 137.277 418.156 136.516 420.466 135.048C422.776 133.581 424.587 131.474 425.671 128.997C426.751 126.519 427.051 123.783 426.538 121.137C426.024 118.491 424.715 116.055 422.776 114.139C420.837 112.224 418.362 110.915 415.659 110.38C412.959 109.846 410.157 110.11 407.611 111.138C405.061 112.166 402.886 113.912 401.36 116.154C399.83 118.396 399.02 121.031 399.031 123.725C398.949 125.507 399.241 127.287 399.897 128.953C400.554 130.618 401.555 132.133 402.838 133.402C404.12 134.671 405.661 135.667 407.356 136.327C409.051 136.987 410.87 137.296 412.692 137.236Z" fill="#364153"/>
<path d="M449.656 104.079V143.404H442.003V104.079H449.656ZM450.823 93.2831C450.823 94.0147 450.658 94.7366 450.339 95.3981C450.013 96.0566 449.544 96.6386 448.966 97.1044C448.385 97.5671 447.71 97.899 446.986 98.0764C446.263 98.2537 445.505 98.2725 444.774 98.1304C444.039 97.9886 443.349 97.6901 442.749 97.2562C442.149 96.822 441.654 96.2636 441.298 95.6205C440.941 94.9774 440.735 94.2645 440.698 93.534C440.66 92.8035 440.791 92.0737 441.076 91.3987C441.526 90.3401 442.336 89.4664 443.371 88.9252C444.403 88.3845 445.599 88.2097 446.75 88.4306C447.898 88.6552 448.929 89.2612 449.671 90.1455C450.418 91.0301 450.823 92.1386 450.823 93.2831Z" fill="#364153"/>
<path d="M305.866 137.239V118.972C305.866 109.326 299.438 103.123 288.984 103.123C279.343 103.123 272.009 108.918 271.668 116.961H279.259C279.593 112.509 283.747 109.244 288.809 109.244C294.738 109.244 298.291 112.695 298.291 118.334V119.617H290.131C277.938 119.617 271.273 124.848 271.273 132.565C271.273 139.644 276.975 144.311 285.781 144.311C288.231 144.305 290.645 143.746 292.836 142.676C295.027 141.606 296.936 140.056 298.413 138.145C298.497 138.79 298.668 139.42 298.92 140.022C299.293 140.905 299.84 141.707 300.531 142.381C301.586 143.398 302.923 144.091 304.379 144.373C305.833 144.655 307.34 144.515 308.713 143.969C309.624 143.606 310.452 143.072 311.15 142.396C311.868 141.726 312.441 140.921 312.836 140.029C313.209 139.145 313.402 138.197 313.404 137.239H305.866ZM295.027 134.954C293.895 136.082 292.545 136.98 291.056 137.596C289.566 138.21 287.967 138.525 286.35 138.523V138.605C281.4 138.605 278.683 136.03 278.683 132.402C278.683 127.668 282.804 125.16 290.381 125.16H298.45V126.384C298.495 127.963 298.215 129.535 297.631 131.007C297.036 132.477 296.152 133.818 295.027 134.954Z" fill="#364153"/>
<path d="M342.647 124.031C342.588 119.944 343.773 115.933 346.052 112.506C348.33 109.079 351.6 106.391 355.445 104.784C357.993 103.711 360.732 103.143 363.507 103.115C366.072 103.066 368.622 103.524 371 104.461C373.38 105.398 375.541 106.795 377.356 108.568C379.171 110.34 380.6 112.453 381.56 114.778C382.52 117.104 382.989 119.595 382.94 122.102C382.925 123.204 382.843 124.304 382.689 125.397H350.032C350.163 128.858 351.681 132.13 354.256 134.509C356.833 136.888 360.261 138.183 363.804 138.114C369.163 138.114 373.847 135.294 375.016 131.125H382.516C380.626 138.841 373.209 144.317 363.325 144.317C360.593 144.364 357.881 143.87 355.349 142.866C352.818 141.861 350.52 140.366 348.597 138.471C346.672 136.575 345.159 134.319 344.148 131.838C343.139 129.356 342.654 126.701 342.722 124.031H342.647ZM375.2 119.193C374.788 113.732 369.921 109.466 363.507 109.466C360.555 109.456 357.686 110.407 355.35 112.168C353.013 113.93 351.343 116.401 350.602 119.193H375.2Z" fill="#364153"/>
<path d="M473.01 110.525L484.316 110.562V104.121H472.927V93.5775H465.42V104.121H457.594V110.569H465.42V137.28C465.42 138.239 465.634 139.185 466.042 140.055C466.466 140.952 467.07 141.755 467.82 142.415C469.234 143.615 470.996 144.348 472.86 144.51C474.724 144.673 476.595 144.257 478.204 143.32C479.528 142.554 480.585 141.417 481.241 140.055C481.65 139.182 481.867 138.234 481.879 137.273H473.01C472.875 132.264 473.01 110.525 473.01 110.525Z" fill="#364153"/>
<path d="M487.433 124.03C487.391 121.318 487.898 118.624 488.921 116.103C489.949 113.582 491.471 111.283 493.406 109.339C495.36 107.398 497.681 105.848 500.239 104.775C502.789 103.707 505.53 103.142 508.301 103.114C510.859 103.074 513.401 103.539 515.771 104.48C518.145 105.421 520.298 106.819 522.105 108.591C523.913 110.363 525.338 112.472 526.294 114.793C527.246 117.114 527.715 119.6 527.666 122.101C527.644 123.203 527.565 124.302 527.43 125.396H494.745C494.876 128.855 496.388 132.127 498.964 134.505C501.536 136.884 504.964 138.18 508.508 138.113C513.866 138.113 518.64 135.294 519.705 131.124H527.209C525.323 138.84 517.905 144.316 508.02 144.316C505.29 144.364 502.575 143.871 500.048 142.866C497.513 141.862 495.218 140.367 493.294 138.471C491.37 136.575 489.859 134.319 488.85 131.837C487.845 129.355 487.361 126.699 487.433 124.03ZM519.968 119.192C519.544 113.732 514.703 109.465 508.271 109.465C505.324 109.463 502.455 110.417 500.123 112.177C497.786 113.937 496.114 116.404 495.368 119.192H519.968Z" fill="#364153"/>
<path d="M326.742 119.735V119.572C326.749 118.925 326.826 118.281 326.971 117.65V117.561C327.017 117.342 327.078 117.127 327.153 116.916V116.826C327.153 116.745 327.214 116.656 327.251 116.567C327.919 114.704 329.16 113.089 330.805 111.944C332.449 110.799 334.417 110.18 336.437 110.171H341.098V103.671H336.771C332.36 103.671 327.942 106.431 326.583 109.956V103.671H318.992V143.375H326.651V121.716C326.651 121.056 326.651 120.395 326.705 119.757L326.742 119.735Z" fill="#364153"/>
<path d="M115.273 116.738L115.615 116.805C120.268 117.555 125.035 116.469 128.868 113.784C132.702 111.099 135.286 107.036 136.054 102.488C136.822 97.9403 135.711 93.2805 132.964 89.5339C130.217 85.7873 126.06 83.2609 121.407 82.5101H121.066L115.273 116.738Z" fill="#364153"/>
<path d="M106.728 126.895L106.614 126.583C104.93 122.303 101.582 118.846 97.3015 116.968C93.0205 115.09 88.1537 114.942 83.7617 116.556C79.3697 118.171 75.8091 121.418 73.8557 125.588C71.9023 129.758 71.7152 134.514 73.3345 138.819L73.456 139.13L106.728 126.895Z" fill="#364153"/>
<path d="M120.021 129.045L119.793 129.297C116.863 132.865 115.491 137.419 115.974 141.97C116.458 146.521 118.758 150.702 122.376 153.606C125.994 156.509 130.638 157.9 135.299 157.478C139.961 157.056 144.263 154.853 147.273 151.349L147.486 151.089L120.021 129.045Z" fill="#364153"/>
<path d="M100.543 112.194C102.783 112.284 105 111.724 106.913 110.583C108.826 109.442 110.35 107.772 111.291 105.784C112.233 103.796 112.55 101.579 112.202 99.4152C111.855 97.251 110.858 95.2365 109.338 93.6263C107.818 92.016 105.844 90.8828 103.665 90.3702C101.486 89.8572 99.2006 89.9877 97.0972 90.7452C94.9942 91.5023 93.1687 92.8527 91.851 94.6249C90.5336 96.3968 89.7836 98.5114 89.6959 100.7C89.5807 103.629 90.6577 106.483 92.691 108.637C94.7239 110.791 97.5476 112.07 100.543 112.194Z" fill="#364153"/>
<path d="M99.6476 157.487C101.883 157.576 104.096 157.015 106.006 155.875C107.916 154.736 109.437 153.068 110.378 151.083C111.319 149.099 111.636 146.886 111.291 144.725C110.945 142.564 109.952 140.552 108.437 138.942C106.922 137.333 104.952 136.198 102.778 135.682C100.603 135.166 98.3208 135.292 96.2193 136.044C94.1178 136.795 92.2916 138.138 90.9708 139.904C89.6501 141.67 88.8948 143.779 88.7996 145.964C88.7354 147.417 88.9657 148.869 89.4764 150.235C89.9872 151.602 90.7691 152.856 91.7767 153.926C92.7843 154.997 93.9986 155.862 95.3493 156.473C96.6997 157.085 98.1603 157.429 99.6476 157.487Z" fill="#364153"/>
<path d="M140.228 135.575C142.464 135.663 144.677 135.101 146.586 133.959C148.496 132.818 150.016 131.149 150.955 129.164C151.894 127.178 152.21 124.965 151.862 122.804C151.515 120.642 150.52 118.631 149.003 117.022C147.485 115.414 145.515 114.281 143.339 113.768C141.164 113.254 138.881 113.382 136.78 114.136C134.679 114.89 132.854 116.236 131.536 118.004C130.217 119.771 129.464 121.881 129.372 124.067C129.253 126.999 130.329 129.858 132.364 132.016C134.4 134.174 137.228 135.454 140.228 135.575Z" fill="#364153"/>
</g>
</g>
</svg>
